components/ui-node-icon/src/replace/replace.large.svg

<svg width="32" height="32" viewBox="0 0 32 32" fill="none" xmlns="http://www.w3.org/2000/svg">
  <path d="M16 7C16 5.89543 16.8954 5 18 5H25C26.1046 5 27 5.89543 27 7V13C27 14.1046 26.1046 15 25 15H18C16.8954 15 16 14.1046 16 13V7Z" fill="var(--tbl--colors--icons--clean--secondary)"/>
  <path fill-rule="evenodd" clip-rule="evenodd" d="M10 7.5C9.44774 7.5 9.00003 7.94772 9.00003 8.5V10H10C10.4045 10 10.7691 10.2436 10.9239 10.6173C11.0787 10.991 10.9931 11.4211 10.7071 11.7071L8.70714 13.7071C8.31661 14.0976 7.68345 14.0976 7.29292 13.7071L5.29292 11.7071C5.00692 11.4211 4.92137 10.991 5.07615 10.6173C5.23093 10.2436 5.59557 10 6.00003 10H7.00003V8.5C7.00003 6.84315 8.34317 5.5 10 5.5H12C12.5523 5.5 13 5.94772 13 6.5C13 7.05228 12.5523 7.5 12 7.5L10 7.5ZM5 19C5 17.8954 5.89543 17 7 17H14C15.1046 17 16 17.8954 16 19V25C16 26.1046 15.1046 27 14 27H7C5.89543 27 5 26.1046 5 25V19ZM24 23.5C24 24.0523 23.5523 24.5 23 24.5H21C20.4477 24.5 20 24.9477 20 25.5C20 26.0523 20.4477 26.5 21 26.5H23C24.6568 26.5 26 25.1569 26 23.5V22H27C27.4044 22 27.7691 21.7564 27.9239 21.3827C28.0786 21.009 27.9931 20.5789 27.7071 20.2929L25.7071 18.2929C25.3166 17.9024 24.6834 17.9024 24.2929 18.2929L22.2929 20.2929C22.0069 20.5789 21.9213 21.009 22.0761 21.3827C22.2309 21.7564 22.5955 22 23 22H24V23.5Z" fill="var(--tbl--colors--icons--clean--primary)"/>
</svg>

<svg xmlns="http://www.w3.org/2000/svg" width="32" height="32" fill="none" viewBox="0 0 32 32">
  <path fill="var(--tbl--colors--icons--clean--secondary)" d="M16 7a2 2 0 0 1 2-2h7a2 2 0 0 1 2 2v6a2 2 0 0 1-2 2h-7a2 2 0 0 1-2-2V7Z"/>
  <path fill="var(--tbl--colors--icons--clean--primary)" fill-rule="evenodd" d="M10 7.5a1 1 0 0 0-1 1V10h1a1 1 0 0 1 .707 1.707l-2 2a1 1 0 0 1-1.414 0l-2-2A1 1 0 0 1 6 10h1V8.5a3 3 0 0 1 3-3h2a1 1 0 1 1 0 2h-2ZM5 19a2 2 0 0 1 2-2h7a2 2 0 0 1 2 2v6a2 2 0 0 1-2 2H7a2 2 0 0 1-2-2v-6Zm19 4.5a1 1 0 0 1-1 1h-2a1 1 0 1 0 0 2h2a3 3 0 0 0 3-3V22h1a1 1 0 0 0 .707-1.707l-2-2a1 1 0 0 0-1.414 0l-2 2A1 1 0 0 0 23 22h1v1.5Z" clip-rule="evenodd"/>
</svg>
